static/Spodivide_logo.svg

<?xml version="1.0" encoding="UTF-8" standalone="no"?>
<svg
   xmlns:dc="http://purl.org/dc/elements/1.1/"
   xmlns:cc="http://creativecommons.org/ns#"
   xmlns:rdf="http://www.w3.org/1999/02/22-rdf-syntax-ns#"
   xmlns:svg="http://www.w3.org/2000/svg"
   xmlns="http://www.w3.org/2000/svg"
   xmlns:sodipodi="http://sodipodi.sourceforge.net/DTD/sodipodi-0.dtd"
   xmlns:inkscape="http://www.inkscape.org/namespaces/inkscape"
   width="25.14521mm"
   height="25.148542mm"
   viewBox="0 0 25.145211 25.148543"
   version="1.1"
   id="svg8"
   inkscape:version="1.0.2 (e86c8708, 2021-01-15)"
   sodipodi:docname="Spodivide_logo.svg">
  <defs
     id="defs2">
    <style
       id="style967">.a{fill-rule:evenodd;}.b{isolation:isolate;}</style>
  </defs>
  <sodipodi:namedview
     id="base"
     pagecolor="#ffffff"
     bordercolor="#666666"
     borderopacity="1.0"
     inkscape:pageopacity="0.0"
     inkscape:pageshadow="2"
     inkscape:zoom="6.3467303"
     inkscape:cx="85.354233"
     inkscape:cy="66.981862"
     inkscape:document-units="mm"
     inkscape:current-layer="layer2"
     inkscape:document-rotation="0"
     showgrid="false"
     inkscape:snap-nodes="true"
     inkscape:window-width="2560"
     inkscape:window-height="1332"
     inkscape:window-x="0"
     inkscape:window-y="25"
     inkscape:window-maximized="0"
     fit-margin-top="0"
     fit-margin-left="0.64"
     fit-margin-right="0.64"
     fit-margin-bottom="0" />
  <metadata
     id="metadata5">
    <rdf:RDF>
      <cc:Work
         rdf:about="">
        <dc:format>image/svg+xml</dc:format>
        <dc:type
           rdf:resource="http://purl.org/dc/dcmitype/StillImage" />
        <dc:title></dc:title>
      </cc:Work>
    </rdf:RDF>
  </metadata>
  <g
     inkscape:groupmode="layer"
     id="layer2"
     inkscape:label="Layer 2"
     transform="translate(327.05313,-57.858527)">
    <path
       id="circle843"
       style="display:inline;fill:#f8f9fa;fill-opacity:1;stroke-width:1.00157;stroke-miterlimit:4;stroke-dasharray:none"
       d="m 79.199219,71.224609 a 11,11 0 0 0 -11,11 11,11 0 0 0 11,11 11,11 0 0 0 11,-11 11,11 0 0 0 -11,-11 z m -5.138672,4.916016 a 0.93593586,0.93593586 0 0 1 0.0059,0 h 5.615235 a 0.93593586,0.93593586 0 0 1 0,1.871094 H 74.066447 A 0.93593586,0.93593586 0 0 1 73.1309,77.076172 0.93593586,0.93593586 0 0 1 74.060588,76.140625 Z m 8.433594,0 a 0.93594331,0.93594331 0 0 1 0.93164,0.935547 c 0,0.30418 0.131355,0.426419 0.884766,0.800781 0.767471,0.383732 1.921875,0.958395 1.921875,2.474609 a 0.9359365,0.9359365 0 0 1 -1.871094,0 c 0,-0.304176 -0.131317,-0.426446 -0.884766,-0.824218 h -0.05078 v 6.439453 a 2.4661909,2.4661909 0 0 1 -2.574219,2.339844 2.4661909,2.4661909 0 0 1 -2.574218,-2.339844 2.4661909,2.4661909 0 0 1 2.574218,-2.339844 2.8826824,2.8826824 0 0 1 0.701172,0.08984 v -6.640625 a 0.93594331,0.93594331 0 0 1 0.941407,-0.935547 z m -8.427735,4.210937 h 5.615235 a 0.9365235,0.9365235 0 0 1 0,1.873047 h -5.615235 a 0.9365235,0.9365235 0 0 1 0,-1.873047 z m 0,4.212891 h 2.339844 a 0.93593586,0.93593586 0 0 1 0,1.871094 h -2.339844 a 0.93593586,0.93593586 0 0 1 0,-1.871094 z"
       transform="matrix(0.26458333,0,0,0.26458333,-326.41313,57.858527)" />
    <path
       id="circle845"
       style="display:inline;fill:#f8f9fa;fill-opacity:1;stroke-width:1.00157;stroke-miterlimit:4;stroke-dasharray:none"
       d="m 79.199219,1.9257812 a 11,11 0 0 0 -11,10.9999998 11,11 0 0 0 11,11 11,11 0 0 0 11,-11 11,11 0 0 0 -11,-10.9999998 z m -5.138672,4.9140626 a 0.93593586,0.93593586 0 0 1 0.0059,0 h 5.615235 a 0.9365234,0.9365234 0 0 1 0,1.8730468 h -5.615235 a 0.93593586,0.93593586 0 0 1 -0.935547,-0.9375 0.93593586,0.93593586 0 0 1 0.929688,-0.9355468 z m 8.433594,0 a 0.93594331,0.93594331 0 0 1 0.93164,0.9355468 c 0,0.3041802 0.131355,0.4264191 0.884766,0.8007813 0.767471,0.3837316 1.921875,0.9603483 1.921875,2.4765621 a 0.9359365,0.9359365 0 0 1 -1.871094,0 c 0,-0.304176 -0.131317,-0.426446 -0.884766,-0.824218 h -0.05078 v 6.439453 a 2.4661909,2.4661909 0 0 1 -2.574219,2.339843 2.4661909,2.4661909 0 0 1 -2.574218,-2.339843 2.4661909,2.4661909 0 0 1 2.574218,-2.339844 2.8826824,2.8826824 0 0 1 0.701172,0.08789 V 7.7753906 a 0.93594331,0.93594331 0 0 1 0.941406,-0.9355468 z m -8.427735,4.2128902 h 5.615235 a 0.93593586,0.93593586 0 0 1 0,1.871094 h -5.615235 a 0.93593586,0.93593586 0 0 1 0,-1.871094 z m 0,4.210938 h 2.339844 a 0.93593586,0.93593586 0 0 1 0,1.871094 h -2.339844 a 0.93593586,0.93593586 0 0 1 0,-1.871094 z"
       transform="matrix(0.26458333,0,0,0.26458333,-326.41313,57.858527)" />
    <path
       id="path847"
       style="display:inline;fill:#f8f9fa;fill-opacity:1;stroke-width:1.00157;stroke-miterlimit:4;stroke-dasharray:none"
       d="m 48.988281,0 c -0.737504,0 -1.48789,0.27421813 -2.08789,0.82421875 -1.099994,1.10000125 -1.099994,2.90156265 0,4.10156245 L 52.099609,10.125 h -17.40039 c -1.600025,0 -2.898438,1.300388 -2.898438,2.900391 V 44.724609 H 21.599609 C 20.299603,40.024612 16.100019,36.525391 11,36.525391 c -6.1000062,0 -11,4.899997 -11,11 0,6.099998 4.8999938,11 11,11 5.100019,0 9.299603,-3.499611 10.599609,-8.09961 h 10.09961 V 82.125 c 0,1.599999 1.300403,2.900391 2.90039,2.900391 h 17.5 l -5.199218,5.199218 c -0.6,0.6 -0.800782,1.300002 -0.800782,2 0,0.700003 0.300901,1.499999 0.800782,2 1.100031,1.100002 2.899609,1.100002 4.099609,0 L 61,84.125 c 1.099994,-1.099997 1.099994,-2.899609 0,-4.099609 l -10,-10 c -1.100031,-1.099998 -2.899609,-1.099998 -4.099609,0 -1.099994,1.100001 -1.099994,2.899609 0,4.099609 l 5.199218,5.199219 H 37.5 V 50.425781 h 31.099609 c 1.300007,4.599999 5.499591,8.09961 10.59961,8.09961 6.099968,0 11,-4.900002 11,-11 0,-6.100003 -4.900032,-11 -11,-11 -5.100019,0 -9.299603,3.49961 -10.59961,8.099609 H 37.5 V 15.824219 h 14.599609 l -5.199218,5.201172 c -0.6,0.6 -0.800782,1.300001 -0.800782,2 0,0.699998 0.300901,1.499998 0.800782,2 1.100031,1.099997 2.899609,1.099997 4.099609,0 l 10,-10 c 1.099994,-1.099998 1.099994,-2.89961 0,-4.09961 L 51,0.82421875 C 50.449984,0.27421813 49.725785,0 48.988281,0 Z m 25.072266,41.439453 a 0.93593586,0.93593586 0 0 1 0.0059,0 h 5.615235 a 0.9365235,0.9365235 0 0 1 0,1.873047 H 74.066447 A 0.93593586,0.93593586 0 0 1 73.1309,42.375 0.93593586,0.93593586 0 0 1 74.060588,41.439453 Z m 8.433594,0 a 0.93594331,0.93594331 0 0 1 0.93164,0.935547 c 0,0.30418 0.131355,0.426419 0.884766,0.800781 0.767471,0.383732 1.921875,0.960349 1.921875,2.476563 a 0.9359365,0.9359365 0 0 1 -1.871094,0 c 0,-0.304177 -0.131317,-0.426446 -0.884766,-0.824219 h -0.05078 v 6.439453 a 2.4661909,2.4661909 0 0 1 -2.574219,2.339844 2.4661909,2.4661909 0 0 1 -2.574218,-2.339844 2.4661909,2.4661909 0 0 1 2.574218,-2.339844 2.8826824,2.8826824 0 0 1 0.701172,0.08789 V 42.375 a 0.93594331,0.93594331 0 0 1 0.941406,-0.935547 z M 7.515625,42.375 a 3.5039168,3.5039168 0 0 1 0.060547,0 3.5039168,3.5039168 0 0 1 3.082031,1.853516 3.5069167,3.5069167 0 0 1 6.599609,1.652343 3.4904171,3.4904171 0 0 1 -1.238281,2.679688 c 0,0 -4.454837,4.759112 -4.777343,5.099609 a 0.79648107,0.79648107 0 0 1 -1.167969,0 C 9.7577285,53.319666 5.2949219,48.554687 5.2949219,48.554688 h 0.00781 A 3.5039168,3.5039168 0 0 1 7.515625,42.375 Z m 66.550781,3.277344 h 5.615235 a 0.93593586,0.93593586 0 0 1 0,1.871094 h -5.615235 a 0.93593586,0.93593586 0 0 1 0,-1.871094 z m 0,4.210937 h 2.339844 a 0.93593586,0.93593586 0 0 1 0,1.871094 h -2.339844 a 0.93593586,0.93593586 0 0 1 0,-1.871094 z"
       transform="matrix(0.26458333,0,0,0.26458333,-326.41313,57.858527)" />
  </g>
</svg>

<?xml version="1.0" encoding="UTF-8" standalone="no"?>
<svg
   xmlns:dc="http://purl.org/dc/elements/1.1/"
   xmlns:cc="http://creativecommons.org/ns#"
   xmlns:rdf="http://www.w3.org/1999/02/22-rdf-syntax-ns#"
   xmlns:svg="http://www.w3.org/2000/svg"
   xmlns="http://www.w3.org/2000/svg"
   xmlns:sodipodi="http://sodipodi.sourceforge.net/DTD/sodipodi-0.dtd"
   xmlns:inkscape="http://www.inkscape.org/namespaces/inkscape"
   width="23.86541mm"
   height="25.148645mm"
   viewBox="0 0 23.86541 25.148646"
   version="1.1"
   id="svg8"
   inkscape:version="1.0.2 (e86c8708, 2021-01-15)"
   sodipodi:docname="Spodivide_logo.svg">
  <defs
     id="defs2">
    <style
       id="style967">.a{fill-rule:evenodd;}.b{isolation:isolate;}</style>
  </defs>
  <sodipodi:namedview
     id="base"
     pagecolor="#ffffff"
     bordercolor="#666666"
     borderopacity="1.0"
     inkscape:pageopacity="0.0"
     inkscape:pageshadow="2"
     inkscape:zoom="2.6581065"
     inkscape:cx="75.437455"
     inkscape:cy="48.092071"
     inkscape:document-units="mm"
     inkscape:current-layer="layer2"
     inkscape:document-rotation="0"
     showgrid="false"
     inkscape:snap-nodes="true"
     inkscape:window-width="2560"
     inkscape:window-height="1332"
     inkscape:window-x="0"
     inkscape:window-y="25"
     inkscape:window-maximized="0" />
  <metadata
     id="metadata5">
    <rdf:RDF>
      <cc:Work
         rdf:about="">
        <dc:format>image/svg+xml</dc:format>
        <dc:type
           rdf:resource="http://purl.org/dc/dcmitype/StillImage" />
        <dc:title></dc:title>
      </cc:Work>
    </rdf:RDF>
  </metadata>
  <g
     inkscape:groupmode="layer"
     id="layer2"
     inkscape:label="Layer 2"
     transform="translate(326.41313,-57.858527)">
    <path
       id="circle843"
       style="display:inline;fill:#f8f9fa;stroke-width:1.00157481;stroke-miterlimit:4;stroke-dasharray:none;fill-opacity:1"
       d="M 79.199219 71.224609 A 11 11 0 0 0 68.199219 82.224609 A 11 11 0 0 0 79.199219 93.224609 A 11 11 0 0 0 90.199219 82.224609 A 11 11 0 0 0 79.199219 71.224609 z M 74.060547 76.140625 A 0.93593586 0.93593586 0 0 1 74.066406 76.140625 L 79.681641 76.140625 A 0.93593586 0.93593586 0 0 1 79.681641 78.011719 L 74.066406 78.011719 A 0.93593586 0.93593586 0 0 1 73.130859 77.076172 A 0.93593586 0.93593586 0 0 1 74.060547 76.140625 z M 82.494141 76.140625 A 0.93594331 0.93594331 0 0 1 83.425781 77.076172 C 83.425781 77.380352 83.557136 77.502591 84.310547 77.876953 C 85.078018 78.260685 86.232422 78.835348 86.232422 80.351562 A 0.9359365 0.9359365 0 0 1 84.361328 80.351562 C 84.361328 80.047386 84.230011 79.925116 83.476562 79.527344 L 83.425781 79.527344 L 83.425781 85.966797 A 2.4661909 2.4661909 0 0 1 80.851562 88.306641 A 2.4661909 2.4661909 0 0 1 78.277344 85.966797 A 2.4661909 2.4661909 0 0 1 80.851562 83.626953 A 2.8826824 2.8826824 0 0 1 81.552734 83.716797 L 81.552734 77.076172 A 0.93594331 0.93594331 0 0 1 82.494141 76.140625 z M 74.066406 80.351562 L 79.681641 80.351562 A 0.93593586 0.93593586 0 0 1 79.681641 82.224609 L 74.066406 82.224609 A 0.93593586 0.93593586 0 0 1 74.066406 80.351562 z M 74.066406 84.564453 L 76.40625 84.564453 A 0.93593586 0.93593586 0 0 1 76.40625 86.435547 L 74.066406 86.435547 A 0.93593586 0.93593586 0 0 1 74.066406 84.564453 z "
       transform="matrix(0.26458333,0,0,0.26458333,-326.41313,57.858527)" />
    <path
       id="circle845"
       style="display:inline;fill:#f8f9fa;stroke-width:1.00157481;stroke-miterlimit:4;stroke-dasharray:none;fill-opacity:1"
       d="M 79.199219 1.9257812 A 11 11 0 0 0 68.199219 12.925781 A 11 11 0 0 0 79.199219 23.925781 A 11 11 0 0 0 90.199219 12.925781 A 11 11 0 0 0 79.199219 1.9257812 z M 74.060547 6.8398438 A 0.93593586 0.93593586 0 0 1 74.066406 6.8398438 L 79.681641 6.8398438 A 0.93593586 0.93593586 0 0 1 79.681641 8.7128906 L 74.066406 8.7128906 A 0.93593586 0.93593586 0 0 1 73.130859 7.7753906 A 0.93593586 0.93593586 0 0 1 74.060547 6.8398438 z M 82.494141 6.8398438 A 0.93594331 0.93594331 0 0 1 83.425781 7.7753906 C 83.425781 8.0795708 83.557136 8.2018097 84.310547 8.5761719 C 85.078018 8.9599035 86.232422 9.5365202 86.232422 11.052734 A 0.9359365 0.9359365 0 0 1 84.361328 11.052734 C 84.361328 10.748558 84.230011 10.626288 83.476562 10.228516 L 83.425781 10.228516 L 83.425781 16.667969 A 2.4661909 2.4661909 0 0 1 80.851562 19.007812 A 2.4661909 2.4661909 0 0 1 78.277344 16.667969 A 2.4661909 2.4661909 0 0 1 80.851562 14.328125 A 2.8826824 2.8826824 0 0 1 81.552734 14.416016 L 81.552734 7.7753906 A 0.93594331 0.93594331 0 0 1 82.494141 6.8398438 z M 74.066406 11.052734 L 79.681641 11.052734 A 0.93593586 0.93593586 0 0 1 79.681641 12.923828 L 74.066406 12.923828 A 0.93593586 0.93593586 0 0 1 74.066406 11.052734 z M 74.066406 15.263672 L 76.40625 15.263672 A 0.93593586 0.93593586 0 0 1 76.40625 17.134766 L 74.066406 17.134766 A 0.93593586 0.93593586 0 0 1 74.066406 15.263672 z "
       transform="matrix(0.26458333,0,0,0.26458333,-326.41313,57.858527)" />
    <path
       id="path847"
       style="display:inline;fill:#f8f9fa;stroke-width:1.00157481;stroke-miterlimit:4;stroke-dasharray:none;fill-opacity:1"
       d="M 48.988281 0 C 48.250777 0 47.500391 0.27421813 46.900391 0.82421875 C 45.800397 1.92422 45.800397 3.7257814 46.900391 4.9257812 L 52.099609 10.125 L 34.699219 10.125 C 33.099194 10.125 31.800781 11.425388 31.800781 13.025391 L 31.800781 44.724609 L 21.599609 44.724609 C 20.299603 40.024612 16.100019 36.525391 11 36.525391 C 4.8999938 36.525391 2.3684758e-15 41.425388 0 47.525391 C 0 53.625389 4.8999938 58.525391 11 58.525391 C 16.100019 58.525391 20.299603 55.02578 21.599609 50.425781 L 31.699219 50.425781 L 31.699219 82.125 C 31.699219 83.724999 32.999622 85.025391 34.599609 85.025391 L 52.099609 85.025391 L 46.900391 90.224609 C 46.300391 90.824609 46.099609 91.524611 46.099609 92.224609 C 46.099609 92.924612 46.40051 93.724608 46.900391 94.224609 C 48.000422 95.324611 49.8 95.324611 51 94.224609 L 61 84.125 C 62.099994 83.025003 62.099994 81.225391 61 80.025391 L 51 70.025391 C 49.899969 68.925393 48.100391 68.925393 46.900391 70.025391 C 45.800397 71.125392 45.800397 72.925 46.900391 74.125 L 52.099609 79.324219 L 37.5 79.324219 L 37.5 50.425781 L 68.599609 50.425781 C 69.899616 55.02578 74.0992 58.525391 79.199219 58.525391 C 85.299187 58.525391 90.199219 53.625389 90.199219 47.525391 C 90.199219 41.425388 85.299187 36.525391 79.199219 36.525391 C 74.0992 36.525391 69.899616 40.025001 68.599609 44.625 L 37.5 44.625 L 37.5 15.824219 L 52.099609 15.824219 L 46.900391 21.025391 C 46.300391 21.625391 46.099609 22.325392 46.099609 23.025391 C 46.099609 23.725389 46.40051 24.525389 46.900391 25.025391 C 48.000422 26.125388 49.8 26.125388 51 25.025391 L 61 15.025391 C 62.099994 13.925393 62.099994 12.125781 61 10.925781 L 51 0.82421875 C 50.449984 0.27421813 49.725785 7.4014868e-17 48.988281 0 z M 74.060547 41.439453 A 0.93593586 0.93593586 0 0 1 74.066406 41.439453 L 79.681641 41.439453 A 0.93593586 0.93593586 0 0 1 79.681641 43.3125 L 74.066406 43.3125 A 0.93593586 0.93593586 0 0 1 73.130859 42.375 A 0.93593586 0.93593586 0 0 1 74.060547 41.439453 z M 82.494141 41.439453 A 0.93594331 0.93594331 0 0 1 83.425781 42.375 C 83.425781 42.67918 83.557136 42.801419 84.310547 43.175781 C 85.078018 43.559513 86.232422 44.13613 86.232422 45.652344 A 0.9359365 0.9359365 0 0 1 84.361328 45.652344 C 84.361328 45.348167 84.230011 45.225898 83.476562 44.828125 L 83.425781 44.828125 L 83.425781 51.267578 A 2.4661909 2.4661909 0 0 1 80.851562 53.607422 A 2.4661909 2.4661909 0 0 1 78.277344 51.267578 A 2.4661909 2.4661909 0 0 1 80.851562 48.927734 A 2.8826824 2.8826824 0 0 1 81.552734 49.015625 L 81.552734 42.375 A 0.93594331 0.93594331 0 0 1 82.494141 41.439453 z M 7.515625 42.375 A 3.5039168 3.5039168 0 0 1 7.5761719 42.375 A 3.5039168 3.5039168 0 0 1 10.658203 44.228516 A 3.5069167 3.5069167 0 0 1 17.257812 45.880859 A 3.4904171 3.4904171 0 0 1 16.019531 48.560547 C 16.019531 48.560547 11.564694 53.319659 11.242188 53.660156 A 0.79648107 0.79648107 0 0 1 10.074219 53.660156 C 9.7577285 53.319666 5.2949219 48.554687 5.2949219 48.554688 L 5.3027344 48.554688 A 3.5039168 3.5039168 0 0 1 7.515625 42.375 z M 74.066406 45.652344 L 79.681641 45.652344 A 0.93593586 0.93593586 0 0 1 79.681641 47.523438 L 74.066406 47.523438 A 0.93593586 0.93593586 0 0 1 74.066406 45.652344 z M 74.066406 49.863281 L 76.40625 49.863281 A 0.93593586 0.93593586 0 0 1 76.40625 51.734375 L 74.066406 51.734375 A 0.93593586 0.93593586 0 0 1 74.066406 49.863281 z "
       transform="matrix(0.26458333,0,0,0.26458333,-326.41313,57.858527)" />
  </g>
</svg>
